!!!COM: D'India, Sigismondo
!!!CDT:
!!!PTL: Il terzo libro de madrigali a cinque voci, con il basso continuo
!!!PPP: Venice
!!!PPR: Angelo Gardano
!!!PDT: 1615
!!!PUB-format:
!!!RISM: I 27
!!!rime: 96
!!!AGN: Madrigal
!!!SCT: Trm0096a
!!!SCA: Trm0096a
!!!original-voices: 5+bc
!!!extant-voices: 5+bc
!!!complete: Y
!!!final: D
!!!OTL: Donna quanto più a dentro
**kern	**kern	**text	**kern	**text	**kern	**text	**kern	**text	**kern	**text
*part6	*part5	*part5	*part4	*part4	*part3	*part3	*part2	*part2	*part1	*part1
*staff6	*staff5	*staff5	*staff4	*staff4	*staff3	*staff3	*staff2	*staff2	*staff1	*staff1
*I"B.C.	*I"Basso	*	*I"Tenore	*	*I"Alto	*	*I"Quinto	*	*I"Canto	*
*I'B.C.	*I'B	*	*I'T	*	*I'A	*	*I'V	*	*I'C	*
*oclefF4	*oclefF4	*	*oclefC4	*	*oclefC3	*	*oclefC1	*	*oclefC1	*
*clefF4	*clefF4	*	*clefGv2	*	*clefG2	*	*clefG2	*	*clefG2	*
*k[b-]	*k[b-]	*	*k[b-]	*	*k[b-]	*	*k[b-]	*	*k[b-]	*
*C:	*C:	*	*C:	*	*C:	*	*C:	*	*C:	*
*omet(C)	*omet(C)	*	*omet(C)	*	*omet(C)	*	*omet(C)	*	*omet(C)	*
*M4/2	*M4/2	*	*M4/2	*	*M4/2	*	*M4/2	*	*M4/2	*
=1	=1	=1	=1	=1	=1	=1	=1	=1	=1	=1
1F	1F	Don-	1A	Don-	1f	Don-	1a	Don-	1cc	Don-
[1AA	1AA	-na,	1A	-na,	1e	-na,	1a	-na,	1cc#X	-na,
=2	=2	=2	=2	=2	=2	=2	=2	=2	=2	=2
1AA]	0r	.	1r	.	1r	.	0r	.	4r	.
.	.	.	.	.	.	.	.	.	4a	quan-
.	.	.	.	.	.	.	.	.	4a	-to
.	.	.	.	.	.	.	.	.	4a	più a
2D	.	.	4r	.	4r	.	.	.	1b-	den-
.	.	.	4D	quan-	4f	quan-	.	.	.	.
4D	.	.	4D	-to	4f	-to	.	.	.	.
4D	.	.	4D	più a	4f	più a	.	.	.	.
=3	=3	=3	=3	=3	=3	=3	=3	=3	=3	=3
4F	4r	.	1.F	den-	4.f	den-	4r	.	1a	-tro,
4AA	4AA	quan-	.	.	.	.	4cc	quan-	.	.
.	.	.	.	.	8g	.	.	.	.	.
4AA	4AA	-to	.	.	1a	.	4cc	-to	.	.
4AA	4AA	più a	.	.	.	.	4cc	più a	.	.
1BB-	1BB-	den-	.	.	.	.	[1dd	den-	4r	.
.	.	.	.	.	.	.	.	.	4dd	<quan-
.	.	.	4E	.	2g	.	.	.	4dd	-to
.	.	.	4D	.	.	.	.	.	4dd	più a
=4	=4	=4	=4	=4	=4	=4	=4	=4	=4	=4
1AA	1AA	-tro	2A	.	1a	-tro	2dd]	.	2ff	den-
.	.	.	2E	-tro,	.	.	2cc#X	-tro,	2ee	-tro>
1D	1r	.	1r	.	1r	.	4r	.	1r	.
.	.	.	.	.	.	.	4dd	<quan-	.	.
.	.	.	.	.	.	.	4dd	-to	.	.
.	.	.	.	.	.	.	4dd	più a	.	.
=5	=5	=5	=5	=5	=5	=5	=5	=5	=5	=5
4AA	4r	.	0r	.	4r	.	0ff	den-	4r	.
4AA	4AA	Co-	.	.	4c	Co-	.	.	4cc	Co-
4BB-	4BB-	-nob-	.	.	4d	-nob-	.	.	2.b-	-nob-
4C	4C	-bi il	.	.	4e	-bi il	.	.	.	.
4D	4D	vo-	.	.	4f	vo-	.	.	.	.
4AA	4AA	-stro	.	.	4c	-stro	.	.	4a	-bi il
2C	2C	co-	.	.	2c	co-	.	.	4a	vo-
.	.	.	.	.	.	.	.	.	4a	-stro
=6	=6	=6	=6	=6	=6	=6	=6	=6	=6	=6
1C	1C	-re,	0r	.	1c	-re,	1ee	-tro>	2g	co-
.	.	.	.	.	.	.	.	.	2g	-re,
4GG	4r	.	.	.	1r	.	4r	.	4r	.
4G	4G	Co-	.	.	.	.	4g	Co-	4b-	Co-
[2F	[2F	-nob-	.	.	.	.	4a	-nob-	4cc	-nob-
.	.	.	.	.	.	.	4b-	-bi il	4dd	-bi il
=7	=7	=7	=7	=7	=7	=7	=7	=7	=7	=7
4F]	4F]	.	4r	.	1r	.	2.cc	vo-	2.ee-X	vo-
4E-X	4E-X	-bi il	4G	quan-	.	.	.	.	.	.
4E-X	4E-X	vo-	4G	-to	.	.	.	.	.	.
4E-X	4E-X	-stro	4G	più a	.	.	4g	-stro	4b-	-stro
2D	2D	co-	1B-	den-	2r	.	1g	co-	2dd	co-
2D	2D	-re,	.	.	4r	.	.	.	2dd	-re,
.	.	.	.	.	4d	Co-	.	.	.	.
=8	=8	=8	=8	=8	=8	=8	=8	=8	=8	=8
2.D	4r	.	1A	-tro	2.c	-nob-	4f#X	-re,	1r	.
.	4D	quan-	.	.	.	.	4f#X	quan-	.	.
.	4D	-to	.	.	.	.	4f#X	-to	.	.
4D	4D	più a	.	.	4B-	-bi il	4f#X	più a	.	.
[1F	[1F	den-	4r	.	2.A	vo-	[1a	den-	4r	.
.	.	.	4A	Co-	.	.	.	.	4cc	<Co-
.	.	.	4B-	-nob-	.	.	.	.	4dd	-nob-
.	.	.	4c	-bi il	4G	-stro	.	.	4eenXi	-bi il
=9	=9	=9	=9	=9	=9	=9	=9	=9	=9	=9
2F]	2F]	.	4d	vo-	2F	co-	2a]	.	4ff	vo-
.	.	.	4A	-stro	.	.	.	.	4cc	-stro
2E	2E	-tro	1c	co-	2G	-re,	2g	-tro,	2ee	co-
2c	1r	.	.	.	1r	.	4r	.	4ee	-re,>
.	.	.	.	.	.	.	4a	quan-	4cc	quan-
2F	.	.	2F	-re,	.	.	4a	-to	4cc	-to
.	.	.	.	.	.	.	4a	più a	4cc	più a
=10	=10	=10	=10	=10	=10	=10	=10	=10	=10	=10
2D	4r	.	0r	.	1r	.	1.b-	den-	1.dd	den-
.	4D	Co-	.	.	.	.	.	.	.	.
4E	4E	-nob-	.	.	.	.	.	.	.	.
4F	4F	-bi il	.	.	.	.	.	.	.	.
4G	4G	vo-	.	.	4g	Co-	.	.	.	.
4D	4D	-stro	.	.	2f	-nob-	.	.	.	.
2F	2F	co-	.	.	.	.	2a	.	2cc	.
.	.	.	.	.	4e-X	-bi il	.	.	.	.
=11	=11	=11	=11	=11	=11	=11	=11	=11	=11	=11
1BB-	1BB-	-re,	4r	.	2d	vo-	1b-	-tro	1dd	-tro
.	.	.	4f	Co-	.	.	.	.	.	.
.	.	.	2.f	-nob-	2d	-stro,	.	.	.	.
4F	4r	.	.	.	4r	.	4r	.	4r	.
4AA	4AA	Co-	4f	-bi il	4c	Co-	4cc	Co-	4a	Co-
4BB-	4BB-	-nob-	4f	vo-	4d	-nob-	[2b-	-nob-	2g	-nob-
4C	4C	-bi il	4e	-stro	4enXi	-bi il	.	.	.	.
=12	=12	=12	=12	=12	=12	=12	=12	=12	=12	=12
4D	4D	vo-	4d	co-	4f	vo-	4b-]	.	4f	-bi il
4AA	4AA	-stro	8cL	.	4c	-stro	4a	-bi il	2f	vo-
.	.	.	8B-J	.	.	.	.	.	.	.
2C	2C	co-	2A	.	2c	co-	4a	vo-	.	.
.	.	.	.	.	.	.	4a	-stro	4f	-stro
1C	1C	-re,	1c	-re,	2G	-re,	2g	co-	2e	co-
.	.	.	.	.	4g	Tan-	2g	-re,	2e	-re,
.	.	.	.	.	4g	-to a	.	.	.	.
=13	=13	=13	=13	=13	=13	=13	=13	=13	=13	=13
2.g	0r	.	0r	.	2.g	dar-	1r	.	1r	.
8fL	.	.	.	.	8f	-vi	.	.	.	.
8eJ	.	.	.	.	8e	cre-	.	.	.	.
8fL	.	.	.	.	8f	-den-	4b-	Tan-	4dd	Tan-
8d	.	.	.	.	8d	-za io	.	.	.	.
8e	.	.	.	.	8e	son	4b-	-to a	4dd	-to a
8fJ	.	.	.	.	8f	più	.	.	.	.
2g	.	.	.	.	2g	tar-	[2b-	dar-	[2dd	dar-
=14	=14	=14	=14	=14	=14	=14	=14	=14	=14	=14
2e-X	0r	.	0r	.	2e-X	-do,	4b-]	.	4dd]	.
.	.	.	.	.	.	.	8a	-vi	8cc	-vi
.	.	.	.	.	.	.	8g	cre-	8b-	cre-
4r	.	.	.	.	4r	.	8a	-den-	8cc	-den-
.	.	.	.	.	.	.	8f	-za io	8a	-za io
2g	.	.	.	.	2g	io	8g	son	8b-	son
.	.	.	.	.	.	.	8a	più	8cc	più
.	.	.	.	.	.	.	8b-L	tar-	4.dd	tar-
.	.	.	.	.	.	.	16cc	.	.	.
.	.	.	.	.	.	.	16ddJ	.	.	.
8fL	.	.	.	.	8f	son	2g	.	.	.
8enXiJ	.	.	.	.	8enXi	più	.	.	16ee	.
.	.	.	.	.	.	.	.	.	16ff	-do,
2d	.	.	.	.	2d	tar-	.	.	2a	Né
.	.	.	.	.	.	.	4f#X	.	.	.
=15	=15	=15	=15	=15	=15	=15	=15	=15	=15	=15
1G	0r	.	0r	.	1G	-do,	1g	-do,	2.g	sti-
.	.	.	.	.	.	.	.	.	4g	-mo
2G	.	.	.	.	4r	.	4r	.	4.bnX	quel
.	.	.	.	.	4G	Né	4g	Né	.	.
.	.	.	.	.	.	.	.	.	8cc	di
4.G	.	.	.	.	4.G	sti-	4.bnX	sti-	[2dd	fuo-
8A	.	.	.	.	8A	-mo	8cc	-mo	.	.
=16	=16	=16	=16	=16	=16	=16	=16	=16	=16	=16
4B-	0r	.	0r	.	4B-	quel	4dd	quel	4dd]	.
4c	.	.	.	.	4c	di	4ee	di	4cc	.
2F	.	.	.	.	2F	fuo-	2ff	fuo-	1dd	.
1A	.	.	.	.	1A	-re,	1ee	-re,	.	.
.	.	.	.	.	.	.	.	.	2cc#X	-re,
=17	=17	=17	=17	=17	=17	=17	=17	=17	=17	=17
2AA	4r	.	0r	.	4r	.	4r	.	4r	.
.	4AA	Io	.	.	4c#X	Io	4e	Io	4a	Io
4.D	4.D	di-	.	.	4.d	di-	4.f	di-	4.a	di-
8D	8D	-co un	.	.	8d	-co un	8f	-co un	8a	-co un
8DL	8D	va-	.	.	8d	va-	8f	va-	8a	va-
8BB-J	8BB-	-go in-	.	.	8d	-go in-	8g	-go in-	8b-	-go in-
2F	2F	-chi-	.	.	2f	-chi-	2a	-chi-	4.cc	-chi-
.	.	.	.	.	.	.	.	.	8cc	-no, un
[4F	4F	-no,	.	.	4f	-no,	4a	-no,	8b-	dol-
.	.	.	.	.	.	.	.	.	8a	-ce
=18	=18	=18	=18	=18	=18	=18	=18	=18	=18	=18
8F]L	8r	.	1r	.	8r	.	8r	.	2.dd	sguar-
8F	8F	un	.	.	8f	un	8a	un	.	.
8E	8E	dol-	.	.	8g	dol-	8g	dol-	.	.
8DJ	8D	-ce	.	.	8a	-ce	8f	-ce	.	.
4A	4A	sguar-	.	.	4a	sguar-	2.e	sguar-	.	.
4.A	4A	-do,	.	.	4a	-do,	.	.	4cc#X	-do,
.	8r	.	2r	.	8r	.	.	.	8r	.
8AL	8A	Un	.	.	8e	Un	.	.	8ccnXi	Un
8B-	8B-	dir:	.	.	8d	dir:	4e	-do, Un	8dd	dir:
8cJ	8c	"nel	.	.	8cnXi	"nel	.	.	8ee	"nel
4F	4F	fo-	8r	.	[2d	fo-	4.a	dir:	[2ff	fo-
.	.	.	8f	Un	.	.	.	.	.	.
4F	4F	-co io	8d	dir:	.	.	.	.	.	.
.	.	.	8c	"nel	.	.	8a	"nel	.	.
=19	=19	=19	=19	=19	=19	=19	=19	=19	=19	=19
1G	1G	ar-	4BnX	fo-	4d]	.	4bnX	fo-	4ff]	.
.	.	.	4G	-co io	4e	-co io	2cc	-co io	4ee	-co io
.	.	.	2d	ar-	2g	ar-	.	.	2dd	ar-
.	.	.	.	.	.	.	4bnX	ar-	.	.
1C	1C	-do,"	1e	-do,>	1g	-do,"	1cc	-do,"	1cc	-do,"
=20	=20	=20	=20	=20	=20	=20	=20	=20	=20	=20
8r	8r	.	8r	.	8r	.	8r	.	8r	.
8FL	8F	Un	8c	Un	8f	Un	8cc	Un	8a	Un
8F	8F	sco-	8c	sco-	8f	sco-	8cc	sco-	8a	sco-
8FJ	8F	-lo-	8c	-lo-	8f	-lo-	8cc	-lo-	8a	-lo-
4F	4F	-rir	4c	-rir	4f	-rir	4cc	-rir	4a	-rir
4E-X	4E-X	di	4G	di	4B-	di	4dd	di	4b-	di
1F	1F	vi-	1c	vi-	1f	vi-	1cc	vi-	1a	vi-
=21	=21	=21	=21	=21	=21	=21	=21	=21	=21	=21
2F	2F	-so,	2A	-so,	2f	-so,	4cc	-so,	4a	-so,
.	.	.	.	.	.	.	8ff	Un	8dd	Un
.	.	.	.	.	.	.	8ee	do-	8cc	do-
4G	4r	.	4r	.	2r	.	2.dd	-len-	2.b-	-len-
8GL	8G	Un	8B-	Un	.	.	.	.	.	.
8FJ	8F	do-	8A	do-	.	.	.	.	.	.
4EnX	4EnXi	-len-	4G	-len-	4r	.	.	.	.	.
4F	4F	-te	4A	-te	8f	Un	4cc	-te	4a	-te
.	.	.	.	.	8e	do-	.	.	.	.
4F	4r	.	4r	.	4d	-len-	2r	.	2r	.
4E	4E	so-	4G	so-	[4e	-te	.	.	.	.
=22	=22	=22	=22	=22	=22	=22	=22	=22	=22	=22
1G	1G	-spir,	1g	-spir,	4e]	.	4r	.	4r	.
.	.	.	.	.	4g	so-	4ee-X	so-	4cc	so-
.	.	.	.	.	4r	.	4dd	-spir,	4bnX	-spir,
.	.	.	.	.	4d	-spir,	8dd	Un	8b	Un
.	.	.	.	.	.	.	8cc	do-	8a	do-
4G	4r	.	2r	.	4r	.	4b-	-len-	4g	-len-
8CL	8C	Un	.	.	8e	Un	4cc	-te	4a	-te
8BB-J	8BB-	do-	.	.	8d	do-	.	.	.	.
4AA	4AA	-len-	4r	.	4c	-len-	4r	.	4r	.
4BB-	4BB-	-te	8G	Un	4d	-te	4b-	so-	4g	so-
.	.	.	8F	do-	.	.	.	.	.	.
=23	=23	=23	=23	=23	=23	=23	=23	=23	=23	=23
4BB-	4r	.	4E	-len-	4r	.	2cc	-spir,	2a	-spir,
4AA	4AA	so-	4F	-te	4c	so-	.	.	.	.
2C	2C	-spir,	4r	.	2e	-spir,	4r	.	4r	.
.	.	.	4E	so-	.	.	8g	Un	8e	Un
.	.	.	.	.	.	.	8f	do-	8d	do-
1A	1r	.	1A	-spir,	8r	.	4enXi	-len-	4c	-len-
.	.	.	.	.	8c	un	.	.	.	.
.	.	.	.	.	8B-	lie-	4f	-te	4d	-te
.	.	.	.	.	8A	-to	.	.	.	.
.	.	.	.	.	4e	ri-	4r	.	4r	.
.	.	.	.	.	4e	-so,	4e	so-	4c	so-
=24	=24	=24	=24	=24	=24	=24	=24	=24	=24	=24
8DL	2r	.	8r	.	1r	.	2f	-spir,	2d	-spir,
8F	.	.	8F	un	.	.	.	.	.	.
8E	.	.	8E	lie-	.	.	.	.	.	.
8DJ	.	.	8D	-to	.	.	.	.	.	.
8FL	8r	.	2F	ri-	.	.	8r	.	2r	.
8AA	8AA	un	.	.	.	.	8cc	un	.	.
8GG	8GG	lie-	.	.	.	.	8b-	lie-	.	.
8FFJ	8FF	-to	.	.	.	.	8a	-to	.	.
1AA	1AA	ri-	1E	-so,	2r	.	4cc#X	ri-	8r	.
.	.	.	.	.	.	.	.	.	8e	un
.	.	.	.	.	.	.	2dd	.	8f	lie-
.	.	.	.	.	.	.	.	.	8g	-to
.	.	.	.	.	8r	.	.	.	2a	ri-
.	.	.	.	.	8e	un	.	.	.	.
.	.	.	.	.	8f	lie-	4cc#X	.	.	.
.	.	.	.	.	8g	-to	.	.	.	.
=25	=25	=25	=25	=25	=25	=25	=25	=25	=25	=25
1D	1D	-so,	1r	.	2g	ri-	1dd	-so,	1a	-so,
.	.	.	.	.	2f#X	-so,	.	.	.	.
2D	1r	.	4r	.	4r	.	4r	.	4r	.
.	.	.	4D	Io	4d	Io	4f#X	Io	4a	Io
4.G	.	.	4.G	di-	4.d	di-	4.g	di-	4.b-	di-
8G	.	.	8G	-co un	8d	-co un	8g	-co un	8b-	-co un
=26	=26	=26	=26	=26	=26	=26	=26	=26	=26	=26
8GL	0r	.	8G	va-	8d	va-	8g	va-	8b-	va-
8FJ	.	.	8F	-go in-	8fnXi	-go in-	8a	-go in-	8cc	-go in-
2B-	.	.	2B-	-chi-	4.f	-chi-	2b-	-chi-	2dd	-chi-
.	.	.	.	.	8f	-no, un	.	.	.	.
4.B-	.	.	4B-	-no,	8e	dol-	4b-	-no,	4dd	-no,
.	.	.	.	.	8d	-ce	.	.	.	.
.	.	.	8r	.	2.g	sguar-	8r	.	8r	.
8B-L	.	.	8B-	un	.	.	8dd	un	8b-	un
8A	.	.	8A	dol-	.	.	8cc	dol-	8cc	dol-
8GJ	.	.	8G	-ce	.	.	8b-	-ce	8dd	-ce
4d	.	.	4d	sguar-	.	.	4a	sguar-	4dd	sguar-
4d	.	.	4d	-do,	4f#X	-do,	4a	-do,	4dd	-do,
=27	=27	=27	=27	=27	=27	=27	=27	=27	=27	=27
2F	2r	.	1r	.	2r	.	8r	.	8r	.
.	.	.	.	.	.	.	8a	Un	8cc	Un
.	.	.	.	.	.	.	8b-	dir:	8dd	dir:
.	.	.	.	.	.	.	8cc	"nel	8ee	"nel
8DL	8r	.	.	.	8r	.	2.dd	fo-	2.ff	fo-
8D	8D	Un	.	.	8fnXi	Un	.	.	.	.
8E	8E	dir:	.	.	8g	dir:	.	.	.	.
8FJ	8F	"nel	.	.	8a	"nel	.	.	.	.
4BB-	4BB-	fo-	8r	.	2.b-	fo-	.	.	.	.
.	.	.	8B-	Un	.	.	.	.	.	.
4BB-	4BB-	-co io	8c	dir:	.	.	4ff	-co io	4b-	-co io
.	.	.	8d	"nel	.	.	.	.	.	.
[2C	[2C	ar-	4G	fo-	.	.	4ee	ar-	4.g	ar-
.	.	.	4A	-co io	4a	-co io	[4ff	.	.	.
.	.	.	.	.	.	.	.	.	16fL	.
.	.	.	.	.	.	.	.	.	16eJ	.
=28	=28	=28	=28	=28	=28	=28	=28	=28	=28	=28
1C]	1C]	.	4.c	ar-	1c	ar-	4ff]	.	2.f	.
.	.	.	.	.	.	.	8aL	.	.	.
.	.	.	16B-L	.	.	.	16g	.	.	.
.	.	.	16AJ	.	.	.	16fJ	.	.	.
.	.	.	2G	.	.	.	2g	.	.	.
.	.	.	.	.	.	.	.	.	4e	.
1FF	1FF	-do,"	1A	-do,"	1c	-do,"	1f	-do,"	1f	-do,"
=29	=29	=29	=29	=29	=29	=29	=29	=29	=29	=29
8r	8r	.	8r	.	8r	.	8r	.	8r	.
8DL	8D	Un	8A	Un	8d	Un	8f#X	Un	8a	Un
8D	8D	sco-	8A	sco-	8d	sco-	8f#X	sco-	8a	sco-
8DJ	8D	-lo-	8A	-lo-	8d	-lo-	8f#X	-lo-	8a	-lo-
2.D	2.D	-rir	2.A	-rir	2.d	-rir	2f#X	-rir	2.a	-rir
.	.	.	.	.	.	.	4f#X	di	.	.
4C	4C	di	4E	di	4G	di	2g	vi-	4b-	di
2D	2D	vi-	2A	vi-	2d	vi-	.	.	2a	vi-
.	.	.	.	.	.	.	4f#X	.	.	.
=30	=30	=30	=30	=30	=30	=30	=30	=30	=30	=30
2.GG	2GG	-so,	2BnX	-so,	4d	-so,	1g	-so,	1g	-so,
.	.	.	.	.	8d	Un	.	.	.	.
.	.	.	.	.	8c	do-	.	.	.	.
.	4r	.	4r	.	2.B-	-len-	.	.	.	.
8GL	8G	Un	8B-	Un	.	.	.	.	.	.
8FJ	8F	do-	8A	do-	.	.	.	.	.	.
4E	4E	-len-	4G	-len-	.	.	4r	.	4r	.
4F	4F	-te	4A	-te	4A	-te	8dd	Un	8ff	Un
.	.	.	.	.	.	.	8cc	do-	8ee	do-
4G	4r	.	4r	.	4r	.	4b-	-len-	4dd	-len-
4E-X	4E-X	so-	4G	so-	4g	so-	4cc	-te	4ee-X	-te
=31	=31	=31	=31	=31	=31	=31	=31	=31	=31	=31
1.F	1F	-spir,	4.d	-spir,	1.f	-spir,	4r	.	4r	.
.	.	.	.	.	.	.	4b-	so-	4dd	so-
.	.	.	16eL	.	.	.	.	.	.	.
.	.	.	16fJ	.	.	.	.	.	.	.
.	.	.	2c	.	.	.	2a	-spir,	2cc	-spir,
.	2r	.	2r	.	.	.	4r	.	4r	.
.	.	.	.	.	.	.	8ff	Un	8dd	Un
.	.	.	.	.	.	.	8ee	do-	8cc	do-
8GL	8r	.	8r	.	2r	.	4dd	-len-	4b-	-len-
8G	8G	un	8B-	un	.	.	.	.	.	.
8F	8F	lie-	8A	lie-	.	.	4ee	-te	4cc	-te
8EnXiJ	8EnXi	-to	8G	-to	.	.	.	.	.	.
=32	=32	=32	=32	=32	=32	=32	=32	=32	=32	=32
4G	4G	ri-	2d	ri-	4r	.	4r	.	4r	.
4G	4G	-so,	.	.	8g	Un	4dd	so-	4bnX	so-
.	.	.	.	.	8f	do-	.	.	.	.
8cL	8r	.	1.c	-so,	4e	-len-	4ee	-spir,	4.cc	-spir,
8C	8C	un	.	.	.	.	.	.	.	.
8BB-	8BB-	lie-	.	.	4f	-te	4r	.	.	.
8AAJ	8AA	-to	.	.	.	.	.	.	8cc	un
2C	2C	ri-	.	.	4r	.	2r	.	8g	lie-
.	.	.	.	.	.	.	.	.	8f	-to
.	.	.	.	.	4e	so-	.	.	4g	ri-
2FF	2FF	-so,	.	.	4f	-spir,	8r	.	2f	-so,
.	.	.	.	.	.	.	8a	un	.	.
.	.	.	.	.	8e	Un	8g	lie-	.	.
.	.	.	.	.	8d	do-	8f	-to	.	.
=33	=33	=33	=33	=33	=33	=33	=33	=33	=33	=33
8AAL	1r	.	8r	.	4e	-len-	4cc	ri-	1r	.
8A	.	.	8B-	un	.	.	.	.	.	.
8G	.	.	8A	lie-	4f	-te	2dd	-so,	.	.
8FJ	.	.	8G	-to	.	.	.	.	.	.
2A	.	.	2c	ri-	4r	.	.	.	.	.
.	.	.	.	.	4e	so-	8cc	Un	.	.
.	.	.	.	.	.	.	8b-	do-	.	.
8DL	8r	.	2F	-so,	1f	-spir,	4a	-len-	8r	.
8F	8F	un	.	.	.	.	.	.	8a	un
8E-X	8E-X	lie-	.	.	.	.	4b-	-te	8g	lie-
8DJ	8D	-to	.	.	.	.	.	.	8f	-to
2F	2F	ri-	2r	.	.	.	4r	.	2cc	ri-
.	.	.	.	.	.	.	4a	so-	.	.
=34	=34	=34	=34	=34	=34	=34	=34	=34	=34	=34
2BB-	2BB-	-so,	1r	.	8r	.	2b-	-spir,	2dd	-so,
.	.	.	.	.	8f	un	.	.	.	.
.	.	.	.	.	8e	lie-	.	.	.	.
.	.	.	.	.	8d	-to	.	.	.	.
2AA	2r	.	.	.	2a	ri-	4r	.	4r	.
.	.	.	.	.	.	.	8a	Un	8cc	Un
.	.	.	.	.	.	.	8g	do-	8b-	do-
8DL	8r	.	2r	.	[1d	-so,	4f#X	-len-	4a	-len-
8D	8D	un	.	.	.	.	.	.	.	.
8C	8C	lie-	.	.	.	.	4g	-te	4b-	-te
8BB-J	8BB-	-to	.	.	.	.	.	.	.	.
2D	2D	ri-	4r	.	.	.	4r	.	4r	.
.	.	.	8d	Un	.	.	4f#X	so-	4a	so-
.	.	.	8c	do-	.	.	.	.	.	.
=35	=35	=35	=35	=35	=35	=35	=35	=35	=35	=35
4GG	4GG	-so,	2.B-	-len-	2d]	.	2g	-spir,	2b-	-spir,
8GL	8G	Un	.	.	.	.	.	.	.	.
8FJ	8F	do-	.	.	.	.	.	.	.	.
4E	4E	-len-	.	.	2r	.	4r	.	4r	.
4F	4F	-te	4A	-te	.	.	8dd	Un	8ff	Un
.	.	.	.	.	.	.	8cc	do-	8ee	do-
4F	4r	.	4r	.	2r	.	4bnX	-len-	4dd	-len-
4E-X	4E-X	so-	4G	so-	.	.	4cc	-te	4ee-X	-te
2G	2G	-spir,	2g	-spir,	4r	.	4r	.	4r	.
.	.	.	.	.	8g	Un	4bnX	so-	4dd	so-
.	.	.	.	.	8f	do-	.	.	.	.
=36	=36	=36	=36	=36	=36	=36	=36	=36	=36	=36
8CL	1r	.	8r	.	4e	-len-	2cc	-spir,	2cc	-spir,
8c	.	.	8c	un	.	.	.	.	.	.
8B-	.	.	8B-	lie-	4f	-te	.	.	.	.
8AJ	.	.	8A	-to	.	.	.	.	.	.
2c	.	.	2c	ri-	4r	.	4r	.	4r	.
.	.	.	.	.	4g	so-	8cc	Un	8ee-X	Un
.	.	.	.	.	.	.	8b-	do-	8dd	do-
8fL	8r	.	1f	-so,	4a	-spir,	4a	-len-	4cc	-len-
8F	8F	un	.	.	.	.	.	.	.	.
8E-X	8E-X	lie-	.	.	4r	.	4b-	-te	4dd	-te
8DJ	8D	-to	.	.	.	.	.	.	.	.
2F	2F	ri-	.	.	2r	.	4r	.	4r	.
.	.	.	.	.	.	.	4a	so-	4cc	so-
=37	=37	=37	=37	=37	=37	=37	=37	=37	=37	=37
2F	2F	-so,	8r	.	8r	.	2b-	-spir,	2dd	-spir,
.	.	.	8d	un	8f	un	.	.	.	.
.	.	.	8c	lie-	8e	lie-	.	.	.	.
.	.	.	8B-	-to	8d	-to	.	.	.	.
8FL	8r	.	4c	ri-	2.a	ri-	8r	.	2r	.
8F	8F	un	.	.	.	.	8a	un	.	.
8EnXi	8EnXi	lie-	4d	-so,	.	.	8g	lie-	.	.
8DJ	8D	-to	.	.	.	.	8f	-to	.	.
1A	1AA	ri-	8r	.	.	.	4cc	ri-	8r	.
.	.	.	8c	un	.	.	.	.	8ff	un
.	.	.	8B-	lie-	8gL	.	2dd	.	8eenXi	lie-
.	.	.	8A	-to	8fJ	.	.	.	8dd	-to
.	.	.	2e	ri-	2a	.	.	.	2ee	ri-
.	.	.	.	.	.	.	4cc#X	.	.	.
=38	=38	=38	=38	=38	=38	=38	=38	=38	=38	=38
0Dl	0Dl	-so.	0f#Xl	-so.	0al	-so.	0ddl	-so.	0ddl	-so.
==	==	==	==	==	==	==	==	==	==	==
*-	*-	*-	*-	*-	*-	*-	*-	*-	*-	*-
!!!system-decoration: [*]
!!!RDF**kern: i = editorial accidental
!!!RDF**kern: l = terminal long
!!!ENC: Emiliano Ricciardi
!!!END: 2019/01/01
!!!EED: Ricciardi, Emiliano
!!!EEV: 2019/01/14
!!!YEC: Copyright 2018 Emiliano Ricciardi, All Rights Reserved
!!!ONB: Translated from MusicXML on 2019/01/14 and edited by Craig Stuart Sapp
!!@@BEGIN:	VERSEDATA
!!@SOLERTI:	96
!!@CATALOGNUM:	Trm0096
!!@LAST_MODIFIED: 2020/07/12
!!@TITLE:		Donna, quanto più a dentro
!!@GENRE:		madrigale
!!@MANUSRC:	C, E<sub>1</sub>, F<sub>2</sub>, V<sub>8</sub>
!!@PRINTSRC:	28, 48, 54, 93, 141, 166, 169
!!@@BEGIN:	VERSES
!!@ABOUTIT:	Dice a la sua donna che, quanto più conosce del suo core, tanto meno gli presta credenza.
!!@ABOUTEN:	He tells his lady that the more he knows her heart, the less he believes it.
!!@EDITOR:	Solerti, Angelo
!!@EDITION_TITLE: Le Rime di Torquato Tasso
!!@EDITION_LOC:	Bologna
!!@EDITION_PUB:	Romagnoli-Dall’Acqua
!!@EDITION_DATE:  1898-1902
!!@EDITION_VOL:	2
!!@EDITION_PAGE:  140
!!@TRANSLATOR:	Emiliano Ricciardi and Amyrose McCue Gill
!!@VERSE:
!!	Donna, quanto più a dentro
!!	Conobbi il vostro core,
!!	Tanto a darvi credenza io son più tardo,
!!	Né stimo quel di fòre,
!!	Io dico un vago inchino, un dolce sguardo,
!!	Un dir &mdash; nel foco io ardo &mdash;,
!!	Un scolorir di viso,
!!	Un dolente sospiro, un lieto riso.
!!@TVERSE:
!!	Lady, the more deeply within
!!	I came to know your heart,
!!	The more slowly [can] I believe you,
!!	Nor [can] I appreciate that which is without,
!!	I mean a lovely curtsy, a sweet glance,
!!	An utterance—I burn in the fire—
!!	A waxing pale of your face,
!!	A sorrowful sigh, a happy smile.
!!@@END:		VERSES
!!@OTHER_CRIT_ED:   Torquato Tasso, <i>Rime d’amore (secondo il codice
!!		Chigiano L VIII 302)</i>, eds. Franco Gavazzeni and
!!		Vercingetorige Martignone, vol. 4 of <i>Edizione
!!		Nazionale delle opere di Torquato Tasso</i>
!!		(Alessandria: Edizioni Dell’Orso, 2004), 75.
!!@ATTRIBUTION_ABOUT:	Secure
!!		<br>
!!		Among other authoritative sources (see Literary
!!		Sources), this poem appears in the autograph Chigiano
!!		L.VIII.302 (Biblioteca Vaticana, Rome), compiled
!!		around 1584&ndash;85.
!!@DATING:
!!@DEDICATEE:	Bendidio, Lucrezia
!!@COMMENTARY:
!!@@END:		VERSEDATA
!!@@BEGIN:	SETTING
!!@CATALOGNUM:	Trm0096a
!!@RIMETITLE:	Donna quanto più a dentro
!!@SOLERTI:	96
!!@COMPOSER:	D'India, Sigismondo
!!@PRINCEPSTITLE:	Il terzo libro de madrigali a cinque voci, con il basso continuo
!!@PRINCEPSLOC:	Venetia
!!@NORMLOC:	Venice
!!@NORMPUB:	Angelo Gardano
!!@NORMPUBSHORT:	Gardano
!!@PRINCEPSPUB:	Gardano
!!@PRINCEPSYEAR:	1615
!!@PRINCEPSRISM:	I 27
!!@REPRINTS:	
!!@OVOICES:	5 + bc
!!@EXTANTVOICES:	5 + bc
!!@PARTBOOKS:	
!!@EXTPARTBOOKS:	
!!@OCLEFS:	C1,C1,C3,C4,F4,F4
!!@OMENSURATION:	C
!!@OKEYSIG:	b-
!!@FINAL:	D
!!@TIMPEDITOR:	Ricciardi, Emiliano
!!@NOTE:		
!!@@END:		SETTING
